static/assets/img/icons/theme/files/media.svg

<svg height="24" viewBox="0 0 24 24" width="24" xmlns="http://www.w3.org/2000/svg"><g fill="none" fill-rule="evenodd"><path d="m0 0h24v24h-24z" opacity="0"/><g fill="#000"><path d="m5.85714286 2h7.87926854c.3546848 0 .6978952.12568431.9686994.35473959l4.7635886 4.02920201c.3369538.28500673.5313006.70393663.5313006 1.14526041v12.55413129c0 1.7905418-.0204479 1.9166667-1.8571429 1.9166667h-12.28571424c-1.83669499 0-1.85714286-.1261249-1.85714286-1.9166667v-16.16666663c0-1.79054178.02044787-1.91666667 1.85714286-1.91666667z" fill-rule="nonzero" opacity=".3"/><path d="m10.782158 15.8052934 4.4034508-3.0100066c.2279718-.1558316.286453-.4669657.1306214-.6949374-.0347715-.0508686-.078646-.0948719-.1294124-.1297924l-4.4034508-3.02898771c-.2275139-.15649928-.5388181-.09893054-.6953174.12858339-.0573474.0833699-.0880496.18217777-.0880496.28336701v6.03899431c0 .2761424.2238576.5.5.5.1006894 0 .199033-.0303999.282158-.0872206z"/></g></g></svg>

<svg width="24px" height="24px" viewBox="0 0 24 24" version="1.1" xmlns="http://www.w3.org/2000/svg" xmlns:xlink="http://www.w3.org/1999/xlink">
    <title>Icon For Media</title>
    <g stroke="none" stroke-width="1" fill="none" fill-rule="evenodd">
        <polygon points="0 0 24 0 24 24 0 24" opacity="0"></polygon>
        <path d="M5.85714286,2 L13.7364114,2 C14.0910962,2 14.4343066,2.12568431 14.7051108,2.35473959 L19.4686994,6.3839416 C19.8056532,6.66894833 20,7.08787823 20,7.52920201 L20,20.0833333 C20,21.8738751 19.9795521,22 18.1428571,22 L5.85714286,22 C4.02044787,22 4,21.8738751 4,20.0833333 L4,3.91666667 C4,2.12612489 4.02044787,2 5.85714286,2 Z" fill="#000000" fill-rule="nonzero" opacity="0.3"></path>
        <path d="M10.782158,15.8052934 L15.1856088,12.7952868 C15.4135806,12.6394552 15.4720618,12.3283211 15.3162302,12.1003494 C15.2814587,12.0494808 15.2375842,12.0054775 15.1868178,11.970557 L10.783367,8.94156929 C10.5558531,8.78507001 10.2445489,8.84263875 10.0880496,9.07015268 C10.0307022,9.15352258 10,9.25233045 10,9.35351969 L10,15.392514 C10,15.6686564 10.2238576,15.892514 10.5,15.892514 C10.6006894,15.892514 10.699033,15.8621141 10.782158,15.8052934 Z" fill="#000000"></path>
    </g>
</svg>
